X:1
T:In questo di si bello
T:Lodovico Agostini
T:In questo di si bello
T:Canzone Quarta parte
C:Lodovico Agostini
%%score [ 1 2 3 4 ]
L:1/8
Q:1/4=60
M:4/4
K:C
V:1 treble nm="Soprano" snm="S"
V:2 alto1 nm="Alto" snm="A"
V:3 alto nm="Tenor" snm="T"
V:4 bass3 nm="Bass" snm="B"
V:1
 z8 |[K:Bb] c4 d3 d | c2 B2 c4 | d2 e4 e2 | d4 c2 c2 | =B4 c4- | c2 c2 c4 | e4 d2 c2 | B3 c d2 B2 | %9
w: |In que- sto|di si bel-|lo, L'al- ma|fiam- ma d'A-|mor di|_ bel- ta|van- to, Sgom-|bro'l no- io- so e|
 A4 B2 B2- | B2 c4 B2 | G4 z2 c2 | A3 A B2 G2 | ^F4 G2 =B2 | c3 B c2 d2 | e4 d2 d2 | c3 B c2 _A2 | %17
w: fel- lo, Do-|* lor mor-|tal che|pria l'af- flis- se|tan- to, Co'l|dol- ce vi- so e|san- to, Co'l|dol- ce vi- so e|
 G4 G2 c2 | =B2 c3 c d2 | B4 B2 d2 | e4 d4 | c3 B A4 | =B4 c2 c2 | d2 c2 A4 | G2 B2 B2 c2 | %25
w: san- to, E'n|nuo- vo ha- bi- to et|va- go, Da|far ar-|der d'A- mo-|re,O- gni sel-|vag- gio co-|re, Si mo- stro|
 =B4 z2 c2- | c2 c2 d4 | e2 d2 f4 | d4 z2 d2 | c4 B4 | G6 F2 | E4 D4 | E8 | D2 B4 c2 | d4 e2 c2 | %35
w: fuor ond'|_ an- chor|l'al- ma ap- pa-|go, Che|di do-|len- *|* te et|tri-|sta, Si fe|lie- ta e con-|
 c3 c d2 c2 | B8 | A4 z2 c2- | c2 c2 d4 | e2 d2 f4 | d4 z2 d2 | c4 B4 | G6 F2 | E4 D4 | E8 | %45
w: ten- ta a quel- la|vi-|sta, ond'|_ an- chor|l'al- ma ap- pa-|go, Che|di do-|len- *|* te et|tri-|
 D2 B4 c2 | d4 e2 c2 | c3 c d2 c2 | B8 | A8 |] %50
w: sta, Si fe|lie- ta e con-|ten- ta a quel- la|vi-|sta,|
V:2
 z8 |[K:Bb][K:treble] A4 B3 B | A2 F2 A4 | B2 B4 B2 | B4 _A2 F2 | G4 G4- | G2 G2 A4 | B4 B2 A2 | %8
w: |In que- sto|di si bel-|lo, L'al- ma|fiam- ma d'A-|mor di|_ bel- ta|van- to, Sgom-|
 G3 F F2 E2 | F4 F2 F2 | G4 F4 | =E4 z2 G2 | F3 F F2 E2 | D4 D2 D2 | E3 F GA B2- | BA/G/ A2 B2 B2 | %16
w: bro'l no- io- so e|fel- lo, Do-|lor mor-|tal che|pria l'af- flis- se|tan- to, Co'l|dol- ce vi- so e san-|* * * * to, Co'l|
 _A3 G E2 F2 | D4 =E2 G2 | ^F2 G3 A B2 | G4 F2 B2 | B6 B2- | BA G2 G2 ^F2 | G4 G2 A2 | B2 G2 F4 | %24
w: dol- ce vi- so e|san- to, E'n|nuo- vo ha- bi- to et|va- go, Da|far ar-|* der d'A- mo- re,|O- gni sel-|vag- gio co-|
 =E2 F2 G2 G2 | G4 z2 A2- | A2 A2 B2 B2- | B2 B2 B2 A2 | B4 z2 B2 | A4 G4 | E6 D2 | C4 D4 | C8 | %33
w: re, Si mo- stro|fuor ond'|_ an- chor l'al-|* ma ap- pa- *|go, Che|di do-|len- *|* te et|tri-|
 =B,2 G4 A2 | B4 B2 A2 | G3 G B2 A2 | GF F3 =E/D/ E2 | F4 z2 A2- | A2 A2 B2 B2- | B2 B2 B2 A2 | %40
w: sta, Si fe|lie- ta e con-|ten- ta a quel- la|vi- * * * * *|sta, ond'|_ an- chor l'al-|* ma ap- pa- *|
 B4 z2 B2 | A4 G4 | E6 D2 | C4 D4 | C8 | =B,2 G4 A2 | B4 B2 A2 | G3 G B2 A2 | GF F3 =E/^D/ E2 | %49
w: go, Che|di do-|len- *|* te et|tri-|sta, Si fe|lie- ta e con-|ten- ta a quel- la|vi- * * * * *|
 F8 |] %50
w: sta,|
V:3
 z8 |[K:Bb][K:treble-8] f4 f3 B | c2 d2 f4 | f2 g4 g2 | f4 f2 c2 | d4 =e4- | e2 =e2 f4 | g4 f2 f2 | %8
w: |In que- sto|di si bel-|lo, L'al- ma|fiam- ma d'A-|mor di|_ bel- ta|van- to, Sgom-|
 d3 c B2 B2 | c4 B2 d2 | e4 d4 | c4 z2 e2 | c3 c d2 c2 | A4 B2 G2 | c3 d e2 d2 | c4 B2 f2 | %16
w: bro'l no- io- so e|fel- lo, Do-|lor mor-|tal che|pria l'af- flis- se|tan- to, Co'l|dol- ce vi- so e|san- to, Co'l|
 f3 d c2 c2 | =B4 c2 e2 | d2 c3 c B2 | e4 d2 f2 | g4 f4 | f2 d2 d2 d2- | d2 d2 =e2 f2- | f2 e2 c4 | %24
w: dol- ce vi- so e|san- to, E'n|nuo- vo ha- bi- to et|va- go, Da|far ar-|der d'A- mo- re,O-|* gni sel- vag-|* gio co-|
 c2 d2 e2 e2 | d4 z2 f2- | f2 f2 f4 | g2 g2 c4 | B4 z2 f2 | f4 d4 | c4 B2 A2 | G4 G4 | G8 | %33
w: re, Si mo- stro|fuor ond'|_ an- chor|l'al- ma ap- pa-|go, Che|di do-|len- * *|* te et|tri-|
 G2 d4 f2 | f4 g2 f2 | e3 e f2 f2 | d3 c B4 | c4 z2 f2- | f2 f2 f4 | g2 g2 c4 | B4 z2 f2 | f4 d4 | %42
w: sta, Si fe|lie- ta e con-|ten- ta a quel- la|vi- * *|sta, ond'|_ an- chor|l'al- ma ap- pa-|go, Che|di do-|
 c4 B2 A2 | G4 G4 | G8 | G2 d4 f2 | f4 g2 f2 | e3 e f2 f2 | d3 c B4 | c8 |] %50
w: len- * *|* te et|tri-|sta, Si fe|lie- ta e con-|ten- ta a quel- la|vi- * *|sta,|
V:4
 z8 |[K:Bb][K:bass] F,4 B,3 G, | A,2 B,2 F,4 | B,,2 E,4 E,2 | B,4 F,2 _A,2 | G,4 C,4- | %6
w: |In que- sto|di si bel-|lo, L'al- ma|fiam- ma d'A-|mor di|
 C,2 C,2 F,4 | E,4 B,,2 F,2 | G,3 A, B,2 G,2 | F,4 B,,4 | z8 | z4 C,4 | F,3 F, B,,2 C,2 | %13
w: _ bel- ta|van- to, Sgom-|bro'l no- io- so e|fel- lo,||che|pria l'af- flis- se|
 D,4 G,,4 | z8 | z4 B,,4 | F,3 G, _A,2 F,2 | G,4 C,4 | z8 | z2 E,2 B,4 | E,F,G,A, B,4 | %21
w: tan- to,||Co'l|dol- ce vi- so e|san- to,||Da far|ar- * * * *|
 F,2 G,2 D,4 | G,4 C,2 F,2 | D,2 E,2 F,4 | C,2 B,,2 E,2 C,2 | G,4 z2 F,2- | F,2 F,2 B,,4 | %27
w: der d'A- mo-|re,O- gni sel-|vag- gio co-|re, Si mo- stro|fuor ond'|_ an- chor|
 E,2 G,2 F,4 | B,,4 z2 B,2 | F,4 G,4 | C,8- | C,4 =B,,4 | C,8 | G,,4 G,2 F,2 | B,4 E,2 F,2 | %35
w: l'al- ma ap- pa-|go, Che|di do-|len-|* te et|tri-|sta, Si fe|lie- ta e con-|
 C3 C B,2 F,2 | B,3 A, G,4 | F,4 z2 F,2- | F,2 F,2 B,,4 | E,2 G,2 F,4 | B,,4 z2 B,2 | F,4 G,4 | %42
w: ten- ta a quel- la|vi- * *|sta, ond'|_ an- chor|l'al- ma ap- pa-|go, Che|di do-|
 C,8- | C,4 =B,,4 | C,8 | G,,4 G,2 F,2 | B,4 E,2 F,2 | C3 C B,2 F,2 | B,3 A, G,4 | F,8 |] %50
w: len-|* te et|tri-|sta, Si fe|lie- ta e con-|ten- ta a quel- la|vi- * *|sta,|

